X:114
T:Reel 114
M:4/4
K:Ador
L:1/8
EF|EDEA, A,A, (3B,A,G, |DG,B,G, DG,B,D|E>A, (3A,A,A, EDB,D|| (3EFG Ac BGAG=F|2A,C (3B,CD EAAB|AcBG AcBA|G2GG  (3GFG BG|AcBc ABcA|GEDB, B,A,A,2|AcBc AcBG|EDEF GABG| (3cdc  (3dcB cABA| (3EFE DB, B,A,A,2|
